icons/mail-opened.svg

<?xml version="1.0" encoding="UTF-8"?><svg xmlns="http://www.w3.org/2000/svg" viewBox="0 0 50 50"><g id="uuid-4df3cba0-0dae-4f7a-8165-324a8da3a3fc"><g><path d="M46,19.89c0-.08-.02-.16-.06-.23,0-.02-.02-.03-.03-.04-.02-.03-.04-.07-.07-.09l-5.88-4.98V.7c0-.28-.22-.5-.5-.5H10.05c-.28,0-.5,.22-.5,.5V14.54l-5.88,4.98s-.05,.06-.07,.09c-.01,.02-.02,.03-.03,.04-.04,.07-.06,.15-.06,.23,0,0,0,.01,0,.02v28.9c0,.28,.22,.5,.5,.5H45.51c.28,0,.5-.22,.5-.5V19.9s0-.01,0-.02Zm-20.38,14.46l19.38-13.49v26.98l-19.38-13.49Zm-1.75,0L4.49,47.84V20.86l19.38,13.49ZM10.55,1.2h28.4V23.86l-14.2,9.88-14.2-9.88V1.2Zm14.2,33.76l19.16,13.34H5.59l19.16-13.34Zm19.94-15.1l-4.74,3.3v-7.31l4.74,4.01Zm-35.14,3.3l-4.74-3.3,4.74-4.01v7.31Z"/><path d="M13.49,9.23h22.51c.28,0,.5-.22,.5-.5s-.22-.5-.5-.5H13.49c-.28,0-.5,.22-.5,.5s.22,.5,.5,.5Z"/><path d="M13.49,15.98h22.51c.28,0,.5-.22,.5-.5s-.22-.5-.5-.5H13.49c-.28,0-.5,.22-.5,.5s.22,.5,.5,.5Z"/><path d="M13.49,22.38h22.51c.28,0,.5-.22,.5-.5s-.22-.5-.5-.5H13.49c-.28,0-.5,.22-.5,.5s.22,.5,.5,.5Z"/></g></g><g id="uuid-71d6aa09-5cb7-41a0-9175-053574c38998"><text transform="translate(-.27 54.91)" font-family="Roboto-Regular, Roboto" font-size="6"><tspan x="0" y="0">mail-opened</tspan></text></g></svg>

<svg xmlns="http://www.w3.org/2000/svg" viewBox="0 0 50 50"><g id="a47a28b5-5fc3-4d7f-96cc-c253b9eb4312" data-name="ICONS"><path d="M46,19.89a.46.46,0,0,0-.06-.23.08.08,0,0,0,0,0,.36.36,0,0,0-.07-.1l-5.88-5V.7a.5.5,0,0,0-.5-.5H10.05a.5.5,0,0,0-.5.5V14.54l-5.88,5a.36.36,0,0,0-.07.1.08.08,0,0,0,0,0,.46.46,0,0,0-.06.23h0V48.8a.5.5,0,0,0,.5.5H45.51a.5.5,0,0,0,.5-.5V19.9ZM25.63,34.35,45,20.86v27Zm-1.75,0L4.49,47.84v-27ZM10.55,1.2H39V23.86l-14.2,9.88-14.2-9.88ZM24.75,35,43.91,48.3H5.59ZM44.69,19.87,40,23.16V15.85ZM9.55,23.16,4.81,19.87l4.74-4Z"/><path d="M13.49,9.23H36a.5.5,0,0,0,0-1H13.49a.5.5,0,1,0,0,1Z"/><path d="M13.49,16H36a.5.5,0,0,0,.5-.5A.51.51,0,0,0,36,15H13.49a.51.51,0,0,0-.5.5A.5.5,0,0,0,13.49,16Z"/><path d="M13.49,22.38H36a.51.51,0,0,0,.5-.5.5.5,0,0,0-.5-.5H13.49a.5.5,0,0,0-.5.5A.51.51,0,0,0,13.49,22.38Z"/></g><g id="e3f9d8bb-e430-486a-bbcd-a486783e7cd2" data-name="LABELS"><text transform="translate(-0.27 54.91)" font-size="6" font-family="Roboto-Regular, Roboto">mail-opened</text></g></svg>
